svg/regular/bx-code-block.svg

<svg xmlns="http://www.w3.org/2000/svg" width="24" height="24"><path d="M20 3H4c-1.103 0-2 .897-2 2v14c0 1.103.897 2 2 2h16c1.103 0 2-.897 2-2V5c0-1.103-.897-2-2-2zM4 19V7h16l.002 12H4z"/><path d="M9.293 9.293 5.586 13l3.707 3.707 1.414-1.414L8.414 13l2.293-2.293zm5.414 0-1.414 1.414L15.586 13l-2.293 2.293 1.414 1.414L18.414 13z"/></svg>

<svg xmlns="http://www.w3.org/2000/svg" width="24" height="24" viewBox="0 0 24 24"><path d="M20,3H4C2.897,3,2,3.897,2,5v14c0,1.103,0.897,2,2,2h16c1.103,0,2-0.897,2-2V5C22,3.897,21.103,3,20,3z M4,19V7h16 l0.002,12H4z"/><path d="M9.293 9.293L5.586 13 9.293 16.707 10.707 15.293 8.414 13 10.707 10.707zM14.707 9.293L13.293 10.707 15.586 13 13.293 15.293 14.707 16.707 18.414 13z"/></svg>
